Newaita-dark/.DP/32/skype-status-connecting-1.svg

<svg xmlns="http://www.w3.org/2000/svg" xmlns:xlink="http://www.w3.org/1999/xlink" width="32px" height="32px" viewBox="0 0 32 32" version="1.1">
<g id="surface1">
<path style=" stroke:none;fill-rule:nonzero;fill:rgb(93.333334%,93.333334%,93.333334%);fill-opacity:1;" d="M 10.726562 4.199219 C 7.59375 4.199219 5.070312 6.722656 5.070312 9.855469 C 5.070312 10.804688 5.300781 11.695312 5.707031 12.480469 C 5.296875 13.621094 5.070312 14.855469 5.070312 16.140625 C 5.070312 22.058594 9.835938 26.824219 15.753906 26.824219 C 16.214844 26.824219 16.667969 26.796875 17.117188 26.738281 C 18.101562 27.578125 19.378906 28.082031 20.78125 28.082031 C 23.917969 28.082031 26.441406 25.558594 26.441406 22.425781 C 26.441406 21.480469 26.207031 20.585938 25.800781 19.804688 C 26.214844 18.660156 26.441406 17.429688 26.441406 16.140625 C 26.441406 10.222656 21.675781 5.457031 15.753906 5.457031 C 15.292969 5.457031 14.839844 5.488281 14.394531 5.542969 C 13.40625 4.703125 12.128906 4.199219 10.726562 4.199219 Z M 16.042969 10.542969 C 16.941406 10.542969 17.851562 10.773438 18.6875 11.257812 C 20.832031 12.496094 21.78125 14.984375 21.144531 17.257812 C 20.625 18.488281 18.332031 17.164062 18.691406 15.839844 C 18.691406 14.925781 18.214844 14.039062 17.363281 13.550781 C 16.511719 13.058594 15.507812 13.089844 14.714844 13.546875 C 13.75 14.519531 11.457031 13.191406 12.261719 12.128906 C 13.269531 11.101562 14.636719 10.542969 16.042969 10.542969 Z M 11.371094 14.507812 C 12.207031 14.511719 13.320312 15.460938 13.0625 16.410156 C 13.0625 17.324219 13.535156 18.214844 14.386719 18.707031 C 15.238281 19.195312 16.246094 19.164062 17.035156 18.707031 C 17.519531 18.222656 18.332031 18.308594 18.925781 18.652344 C 19.519531 18.996094 19.890625 19.589844 19.488281 20.121094 C 17.839844 21.808594 15.207031 22.234375 13.066406 20.996094 C 10.921875 19.757812 9.972656 17.269531 10.609375 14.996094 C 10.753906 14.652344 11.042969 14.503906 11.371094 14.507812 Z M 11.371094 14.507812 "/>
</g>
</svg>

<svg xmlns="http://www.w3.org/2000/svg" width="32pt" height="32pt" viewBox="0 0 32 32"><path d="M10.727 4.2A5.645 5.645 0 0 0 5.07 9.854c0 .95.23 1.84.64 2.625a10.713 10.713 0 0 0-.64 3.66 10.661 10.661 0 0 0 10.684 10.684c.46 0 .918-.027 1.363-.082a5.643 5.643 0 0 0 3.664 1.34 5.642 5.642 0 0 0 5.657-5.656c0-.95-.231-1.84-.637-2.621.414-1.14.637-2.375.637-3.664A10.661 10.661 0 0 0 15.754 5.457c-.461 0-.914.027-1.363.086a5.618 5.618 0 0 0-3.664-1.344zm5.312 6.343c.898 0 1.813.23 2.648.715a5.28 5.28 0 0 1 2.458 6c-.52 1.226-2.813-.094-2.454-1.418a2.65 2.65 0 0 0-3.977-2.293c-.964.969-3.257-.352-2.452-1.414a5.287 5.287 0 0 1 3.777-1.59zm-4.668 3.965c.836.004 1.95.953 1.691 1.902 0 .914.473 1.805 1.325 2.293a2.64 2.64 0 0 0 2.648.004c.485-.484 1.3-.398 1.89-.055.595.34.966.938.563 1.47a5.272 5.272 0 0 1-6.422.874 5.28 5.28 0 0 1-2.457-6c.145-.348.434-.488.762-.488zm0 0" fill="#bdbdbd"/></svg>
